X:1
T: The Custom House
C:
R:Jig
Q:180
K:Em
M:6/8
L:1/16
A2|B2A2F2 A2D2D2|F2D2D2 A2D2D2|B2A2F2 A2D2D2|F2E2E2 E2F2A2|B2A2F2 A2D2D2|F2D2F2 d4e2|f2e2d2 d2c2B2|A2G2F2 E2F2A2|
def2e2 d4B2|A2F2A2 A2F2A2|def2e2 d4f2|e2d2e2 f2d2B2|def2e2 d4B2|A2F2A2 A2B2d2|g2f2e2 f2d2B2|A2G2F2 E2F2A2|
def2e2 d4B2|A2F2A2 A2F2A2|def2e2 d4f2|e2d2e2 f2d2B2|def2e2 d4B2|A2F2A2 A2B2d2|g2f2e2 f2d2B2|A2G2F2 E2F2A2|
B2A2F2 A2D2D2|F2D2D2 A2D2D2|B2A2F2 A2D2D2|F2E2E2 E2F2A2|B2A2F2 A2D2D2|F2D2F2 d4e2|f2e2d2 d2c2B2|A2G2F2 E4||
